assets/icons/contract.svg

<svg width="81" height="86" viewBox="0 0 81 86" fill="none" xmlns="http://www.w3.org/2000/svg">
    <path d="M78.6206 33.1675L77.5884 32.1415C78.2562 30.7623 78.4851 29.2135 78.2448 27.7017C78.0045 26.1899 77.3063 24.7867 76.2432 23.6794C75.518 22.9619 74.6471 22.4065 73.6887 22.0502C72.7303 21.6939 71.7065 21.5449 70.6856 21.6131C69.7262 21.6689 68.784 21.8915 67.902 22.271V5H1.00012V81H67.902V42.5725L75.2851 35.2338L75.9159 35.8584C75.9983 35.9402 76.0637 36.0374 76.1083 36.1444C76.153 36.2513 76.1759 36.366 76.1759 36.4818C76.1759 36.5976 76.153 36.7123 76.1083 36.8193C76.0637 36.9262 75.9983 37.0234 75.9159 37.1053L70.2937 42.696C69.9351 43.0522 69.7335 43.5354 69.7332 44.0394C69.733 44.5434 69.9342 45.0268 70.2925 45.3833C70.6509 45.7398 71.1371 45.9402 71.6441 45.9405C72.1511 45.9407 72.6374 45.7407 72.9961 45.3845L78.6206 39.7938C79.504 38.9147 80.0001 37.7231 80.0001 36.4806C80.0001 35.2382 79.504 34.0466 78.6206 33.1675ZM15.3362 19.725H53.5707V23.525H15.3362V19.725ZM15.3362 29.225H53.5707V33.025H15.3362V29.225ZM15.3362 38.725H40.4244V42.525H15.3362V38.725ZM50.6772 71.253H32.033C29.8778 71.253 27.8612 71.0488 26.7908 69.296C25.6941 67.5029 26.7836 65.42 27.5793 63.8953C27.7203 63.6269 27.4073 63.2944 27.0488 63.6625C25.9975 64.736 24.325 66.6693 22.9798 68.2225C21.5581 69.866 20.9942 70.5096 20.6932 70.7804C20.3747 71.1482 19.942 71.4001 19.4636 71.4964C18.9851 71.5927 18.4879 71.528 18.0505 71.3124C17.6579 71.087 17.3502 70.74 17.1746 70.3244C16.999 69.9088 16.9651 69.4475 17.0781 69.011C17.1784 68.4173 18.8844 61.81 20.4303 55.8701C18.3755 59.4968 11.8526 70.3576 11.5467 70.8682C11.3192 71.2471 10.9496 71.5207 10.5192 71.6287C10.0889 71.7367 9.63292 71.6703 9.25175 71.4442C8.87058 71.2181 8.5954 70.8507 8.48674 70.4229C8.37808 69.9951 8.44484 69.5419 8.67233 69.163C8.75596 69.0276 16.9275 55.4165 17.9574 53.4405C18.2931 52.6506 18.9179 52.0169 19.7056 51.6673C20.4933 51.3177 21.3851 51.2783 22.2009 51.5571C22.9372 51.8546 23.5327 52.4185 23.8675 53.1351C24.2022 53.8517 24.2513 54.6677 24.0048 55.4189C23.1446 58.7154 22.2678 62.0974 21.5916 64.7289C22.6835 63.4749 23.8256 62.1876 24.6499 61.3445C25.2843 60.5864 26.1512 60.0559 27.1179 59.8341C28.0845 59.6123 29.0976 59.7116 30.0021 60.1166C30.5641 60.4011 31.0143 60.8642 31.281 61.4322C31.5477 62.0003 31.6156 62.6408 31.4739 63.2516C31.2457 64.0082 30.9348 64.7378 30.5469 65.4271C29.9089 66.7453 30.2124 67.9256 32.033 67.9256H50.6772C51.1208 67.9256 51.5462 68.1008 51.8598 68.4126C52.1735 68.7243 52.3497 69.1472 52.3497 69.5881C52.3497 70.0291 52.1735 70.4519 51.8598 70.7637C51.5462 71.0755 51.1208 71.253 50.6772 71.253ZM45.7073 59.2593L39.4854 60.8909C39.3949 60.9164 39.2991 60.917 39.2083 60.8928C39.1174 60.8685 39.0348 60.8203 38.9693 60.7531C38.9007 60.6887 38.8512 60.6068 38.8264 60.5163C38.8015 60.4258 38.8022 60.3303 38.8284 60.2401L40.4149 54.0675L56.1607 38.4162L61.4173 43.6413L45.7073 59.2593ZM73.1036 32.0251L64.1197 40.9551L58.8631 35.7301L67.8471 26.8001C68.6505 25.979 69.7316 25.4831 70.8815 25.4084L71.0966 25.4013C71.5478 25.3932 71.9961 25.4746 72.4153 25.6405C72.8345 25.8065 73.2164 26.0537 73.5385 26.3679C74.2291 27.1782 74.5707 28.2263 74.4893 29.2852C74.4079 30.3441 73.91 31.3285 73.1036 32.0251Z"
          fill="#FD5B33"/>
</svg>

<svg xmlns="http://www.w3.org/2000/svg" width="81" height="86" fill="none"><path fill="#FD5B33" d="m78.62 33.167-1.032-1.026a7.488 7.488 0 0 0-1.345-8.462 7.198 7.198 0 0 0-2.554-1.629 7.235 7.235 0 0 0-3.003-.437 8.256 8.256 0 0 0-2.784.658V5H1v76h66.902V42.572l7.383-7.338.63.624a.88.88 0 0 1 0 1.247l-5.621 5.591a1.895 1.895 0 0 0-.001 2.687 1.918 1.918 0 0 0 2.703.002l5.625-5.591A4.674 4.674 0 0 0 80 36.48a4.674 4.674 0 0 0-1.38-3.314ZM15.337 19.725h38.235v3.8H15.336v-3.8Zm0 9.5h38.235v3.8H15.336v-3.8Zm0 9.5h25.088v3.8H15.336v-3.8Zm35.341 32.528H32.033c-2.155 0-4.172-.204-5.242-1.957-1.097-1.793-.007-3.876.788-5.4.141-.27-.172-.602-.53-.233-1.052 1.073-2.724 3.006-4.07 4.56-1.42 1.643-1.985 2.287-2.286 2.557a2.21 2.21 0 0 1-2.643.532 2.068 2.068 0 0 1-.875-.988 2.052 2.052 0 0 1-.097-1.313c.1-.594 1.806-7.201 3.352-13.14-2.055 3.626-8.577 14.487-8.883 14.997a1.683 1.683 0 0 1-2.295.576 1.655 1.655 0 0 1-.58-2.281c.084-.135 8.255-13.746 9.285-15.722.336-.79.96-1.424 1.749-1.774a3.424 3.424 0 0 1 2.495-.11 3.134 3.134 0 0 1 1.666 1.578c.335.717.384 1.533.138 2.284-.86 3.296-1.737 6.678-2.413 9.31 1.091-1.254 2.234-2.541 3.058-3.385a4.542 4.542 0 0 1 2.468-1.51 4.563 4.563 0 0 1 2.884.283 2.818 2.818 0 0 1 1.279 1.315c.267.568.335 1.209.193 1.82-.228.756-.54 1.486-.927 2.175-.638 1.318-.335 2.499 1.486 2.499h18.644c.444 0 .87.175 1.183.487a1.657 1.657 0 0 1 0 2.35 1.68 1.68 0 0 1-1.183.49Zm-4.97-11.994-6.222 1.632a.524.524 0 0 1-.516-.138.51.51 0 0 1-.14-.513l1.586-6.172L56.16 38.416l5.256 5.225-15.71 15.618Zm27.397-27.234-8.984 8.93-5.257-5.225 8.984-8.93a4.669 4.669 0 0 1 3.035-1.392l.215-.007a3.417 3.417 0 0 1 2.442.967 4.021 4.021 0 0 1-.435 5.657Z"/></svg>
